X: 1
T: Julia Delaney's
R: reel
M: 4/4
L: 1/8
K: Ddor
dcAG ~F2EF | ~E2 DE FD D2 | dcAG FGAA | Addc d2 fe :||
f2fe fagf | ecgc acgc | f2fe fagf | edcG Add2 :||


Tune 589	Setting 22605

